images/3235054.svg

<?xml version="1.0" encoding="UTF-8"?>
<svg xmlns="http://www.w3.org/2000/svg" xmlns:xlink="http://www.w3.org/1999/xlink" width="300pt" height="300pt" viewBox="0 0 300 300" version="1.1">
<defs>
<g>
<symbol overflow="visible" id="glyph0-0">
<path style="stroke:none;" d="M 0.59375 2.125 L 0.59375 -8.46875 L 6.59375 -8.46875 L 6.59375 2.125 Z M 1.265625 1.453125 L 5.9375 1.453125 L 5.9375 -7.78125 L 1.265625 -7.78125 Z M 1.265625 1.453125 "/>
</symbol>
<symbol overflow="visible" id="glyph0-1">
<path style="stroke:none;" d="M 4.734375 -7.953125 C 3.867188 -7.953125 3.179688 -7.628906 2.671875 -6.984375 C 2.171875 -6.347656 1.921875 -5.472656 1.921875 -4.359375 C 1.921875 -3.265625 2.171875 -2.394531 2.671875 -1.75 C 3.179688 -1.113281 3.867188 -0.796875 4.734375 -0.796875 C 5.585938 -0.796875 6.265625 -1.113281 6.765625 -1.75 C 7.273438 -2.394531 7.53125 -3.265625 7.53125 -4.359375 C 7.53125 -5.472656 7.273438 -6.347656 6.765625 -6.984375 C 6.265625 -7.628906 5.585938 -7.953125 4.734375 -7.953125 Z M 4.734375 -8.90625 C 5.953125 -8.90625 6.925781 -8.492188 7.65625 -7.671875 C 8.394531 -6.847656 8.765625 -5.742188 8.765625 -4.359375 C 8.765625 -2.984375 8.394531 -1.882812 7.65625 -1.0625 C 6.925781 -0.238281 5.953125 0.171875 4.734375 0.171875 C 3.503906 0.171875 2.519531 -0.238281 1.78125 -1.0625 C 1.039062 -1.882812 0.671875 -2.984375 0.671875 -4.359375 C 0.671875 -5.742188 1.039062 -6.847656 1.78125 -7.671875 C 2.519531 -8.492188 3.503906 -8.90625 4.734375 -8.90625 Z M 4.734375 -8.90625 "/>
</symbol>
<symbol overflow="visible" id="glyph0-2">
<path style="stroke:none;" d="M 1.171875 -8.75 L 2.765625 -8.75 L 6.65625 -1.4375 L 6.65625 -8.75 L 7.796875 -8.75 L 7.796875 0 L 6.203125 0 L 2.328125 -7.3125 L 2.328125 0 L 1.171875 0 Z M 1.171875 -8.75 "/>
</symbol>
<symbol overflow="visible" id="glyph0-3">
<path style="stroke:none;" d="M 1.171875 -8.75 L 2.359375 -8.75 L 2.359375 -5.15625 L 6.65625 -5.15625 L 6.65625 -8.75 L 7.84375 -8.75 L 7.84375 0 L 6.65625 0 L 6.65625 -4.171875 L 2.359375 -4.171875 L 2.359375 0 L 1.171875 0 Z M 1.171875 -8.75 "/>
</symbol>
</g>
</defs>
<g id="surface45181">
<rect x="0" y="0" width="300" height="300" style="fill:rgb(100%,100%,100%);fill-opacity:1;stroke:none;"/>
<path style="fill:none;stroke-width:1.2;stroke-linecap:butt;stroke-linejoin:miter;stroke:rgb(0%,0%,0%);stroke-opacity:1;stroke-miterlimit:10;" d="M 88.324219 157.855469 L 63.65625 174.257812 "/>
<path style="fill:none;stroke-width:1.2;stroke-linecap:butt;stroke-linejoin:miter;stroke:rgb(0%,0%,100%);stroke-opacity:1;stroke-miterlimit:10;" d="M 86.457031 128.292969 L 87.390625 143.074219 "/>
<path style="fill:none;stroke-width:1.2;stroke-linecap:butt;stroke-linejoin:miter;stroke:rgb(0%,0%,0%);stroke-opacity:1;stroke-miterlimit:10;" d="M 87.390625 143.074219 L 88.324219 157.855469 "/>
<path style="fill:none;stroke-width:1.2;stroke-linecap:butt;stroke-linejoin:miter;stroke:rgb(0%,0%,0%);stroke-opacity:1;stroke-miterlimit:10;" d="M 63.65625 174.257812 L 50.386719 167.675781 "/>
<path style="fill:none;stroke-width:1.2;stroke-linecap:butt;stroke-linejoin:miter;stroke:rgb(100%,0%,0%);stroke-opacity:1;stroke-miterlimit:10;" d="M 50.386719 167.675781 L 37.117188 161.09375 "/>
<path style="fill:none;stroke-width:1.2;stroke-linecap:butt;stroke-linejoin:miter;stroke:rgb(100%,0%,0%);stroke-opacity:1;stroke-miterlimit:10;" d="M 37.117188 161.09375 L 36.183594 146.308594 "/>
<path style="fill:none;stroke-width:1.2;stroke-linecap:butt;stroke-linejoin:miter;stroke:rgb(0%,0%,0%);stroke-opacity:1;stroke-miterlimit:10;" d="M 36.183594 146.308594 L 35.25 131.527344 "/>
<path style=" stroke:none;fill-rule:nonzero;fill:rgb(100%,100%,100%);fill-opacity:1;" d="M 32.117188 154.09375 L 42.117188 154.09375 L 42.117188 168.09375 L 32.117188 168.09375 Z M 32.117188 154.09375 "/>
<g style="fill:rgb(100%,0%,0%);fill-opacity:1;">
  <use xlink:href="#glyph0-1" x="32.117188" y="165.232422"/>
</g>
<path style="fill:none;stroke-width:1.2;stroke-linecap:butt;stroke-linejoin:miter;stroke:rgb(0%,0%,0%);stroke-opacity:1;stroke-miterlimit:10;" d="M 35.25 131.527344 L 59.917969 115.128906 "/>
<path style="fill:none;stroke-width:1.2;stroke-linecap:butt;stroke-linejoin:miter;stroke:rgb(0%,0%,0%);stroke-opacity:1;stroke-miterlimit:10;" d="M 59.917969 115.128906 L 73.1875 121.710938 "/>
<path style="fill:none;stroke-width:1.2;stroke-linecap:butt;stroke-linejoin:miter;stroke:rgb(0%,0%,100%);stroke-opacity:1;stroke-miterlimit:10;" d="M 73.1875 121.710938 L 86.457031 128.292969 "/>
<path style="fill:none;stroke-width:1.2;stroke-linecap:butt;stroke-linejoin:miter;stroke:rgb(0%,0%,100%);stroke-opacity:1;stroke-miterlimit:10;" d="M 86.457031 128.292969 L 98.792969 120.089844 "/>
<path style="fill:none;stroke-width:1.2;stroke-linecap:butt;stroke-linejoin:miter;stroke:rgb(0%,0%,0%);stroke-opacity:1;stroke-miterlimit:10;" d="M 98.792969 120.089844 L 111.128906 111.890625 "/>
<path style=" stroke:none;fill-rule:nonzero;fill:rgb(100%,100%,100%);fill-opacity:1;" d="M 82.457031 121.292969 L 91.457031 121.292969 L 91.457031 135.292969 L 82.457031 135.292969 Z M 82.457031 121.292969 "/>
<g style="fill:rgb(0%,0%,100%);fill-opacity:1;">
  <use xlink:href="#glyph0-2" x="82.457031" y="132.431641"/>
</g>
<path style="fill:none;stroke-width:1.2;stroke-linecap:butt;stroke-linejoin:miter;stroke:rgb(0%,0%,0%);stroke-opacity:1;stroke-miterlimit:10;" d="M 111.128906 111.890625 L 137.664062 125.054688 "/>
<path style="fill:none;stroke-width:1.2;stroke-linecap:butt;stroke-linejoin:miter;stroke:rgb(0%,0%,0%);stroke-opacity:1;stroke-miterlimit:10;" d="M 137.664062 125.054688 L 150 116.855469 "/>
<path style="fill:none;stroke-width:1.2;stroke-linecap:butt;stroke-linejoin:miter;stroke:rgb(0%,0%,100%);stroke-opacity:1;stroke-miterlimit:10;" d="M 150 116.855469 L 162.335938 108.65625 "/>
<path style="fill:none;stroke-width:1.2;stroke-linecap:butt;stroke-linejoin:miter;stroke:rgb(0%,0%,100%);stroke-opacity:1;stroke-miterlimit:10;" d="M 162.335938 108.65625 L 175.605469 115.238281 "/>
<path style="fill:none;stroke-width:1.2;stroke-linecap:butt;stroke-linejoin:miter;stroke:rgb(0%,0%,0%);stroke-opacity:1;stroke-miterlimit:10;" d="M 175.605469 115.238281 L 188.871094 121.820312 "/>
<path style=" stroke:none;fill-rule:nonzero;fill:rgb(100%,100%,100%);fill-opacity:1;" d="M 153.335938 101.65625 L 171.335938 101.65625 L 171.335938 115.65625 L 153.335938 115.65625 Z M 153.335938 101.65625 "/>
<g style="fill:rgb(0%,0%,100%);fill-opacity:1;">
  <use xlink:href="#glyph0-2" x="153.335938" y="112.794922"/>
  <use xlink:href="#glyph0-3" x="162.3125" y="112.794922"/>
</g>
<path style="fill:none;stroke-width:1.2;stroke-linecap:butt;stroke-linejoin:miter;stroke:rgb(0%,0%,0%);stroke-opacity:1;stroke-miterlimit:10;" d="M 188.871094 121.820312 L 189.808594 136.601562 "/>
<path style="fill:none;stroke-width:1.2;stroke-linecap:butt;stroke-linejoin:miter;stroke:rgb(0%,0%,100%);stroke-opacity:1;stroke-miterlimit:10;" d="M 189.808594 136.601562 L 190.742188 151.386719 "/>
<path style="fill:none;stroke-width:1.2;stroke-linecap:butt;stroke-linejoin:miter;stroke:rgb(0%,0%,0%);stroke-opacity:1;stroke-miterlimit:10;" d="M 196.015625 124.335938 L 196.761719 136.164062 "/>
<path style="fill:none;stroke-width:1.2;stroke-linecap:butt;stroke-linejoin:miter;stroke:rgb(0%,0%,100%);stroke-opacity:1;stroke-miterlimit:10;" d="M 196.761719 136.164062 L 197.511719 147.988281 "/>
<path style="fill:none;stroke-width:1.2;stroke-linecap:butt;stroke-linejoin:miter;stroke:rgb(0%,0%,0%);stroke-opacity:1;stroke-miterlimit:10;" d="M 213.542969 105.421875 L 188.871094 121.820312 "/>
<path style="fill:none;stroke-width:1.2;stroke-linecap:butt;stroke-linejoin:miter;stroke:rgb(0%,0%,100%);stroke-opacity:1;stroke-miterlimit:10;" d="M 190.742188 151.386719 L 204.007812 157.96875 "/>
<path style="fill:none;stroke-width:1.2;stroke-linecap:butt;stroke-linejoin:miter;stroke:rgb(0%,0%,0%);stroke-opacity:1;stroke-miterlimit:10;" d="M 204.007812 157.96875 L 217.277344 164.550781 "/>
<path style=" stroke:none;fill-rule:nonzero;fill:rgb(100%,100%,100%);fill-opacity:1;" d="M 186.742188 144.386719 L 195.742188 144.386719 L 195.742188 158.386719 L 186.742188 158.386719 Z M 186.742188 144.386719 "/>
<g style="fill:rgb(0%,0%,100%);fill-opacity:1;">
  <use xlink:href="#glyph0-2" x="186.742188" y="155.525391"/>
</g>
<path style="fill:none;stroke-width:1.2;stroke-linecap:butt;stroke-linejoin:miter;stroke:rgb(0%,0%,0%);stroke-opacity:1;stroke-miterlimit:10;" d="M 217.277344 164.550781 L 229.613281 156.351562 "/>
<path style="fill:none;stroke-width:1.2;stroke-linecap:butt;stroke-linejoin:miter;stroke:rgb(0%,0%,100%);stroke-opacity:1;stroke-miterlimit:10;" d="M 229.613281 156.351562 L 241.949219 148.148438 "/>
<path style="fill:none;stroke-width:1.2;stroke-linecap:butt;stroke-linejoin:miter;stroke:rgb(0%,0%,0%);stroke-opacity:1;stroke-miterlimit:10;" d="M 215.886719 157.105469 L 225.753906 150.546875 "/>
<path style="fill:none;stroke-width:1.2;stroke-linecap:butt;stroke-linejoin:miter;stroke:rgb(0%,0%,100%);stroke-opacity:1;stroke-miterlimit:10;" d="M 225.753906 150.546875 L 235.621094 143.984375 "/>
<path style="fill:none;stroke-width:1.2;stroke-linecap:butt;stroke-linejoin:miter;stroke:rgb(0%,0%,0%);stroke-opacity:1;stroke-miterlimit:10;" d="M 217.277344 164.550781 L 219.144531 194.113281 "/>
<path style="fill:none;stroke-width:1.2;stroke-linecap:butt;stroke-linejoin:miter;stroke:rgb(0%,0%,100%);stroke-opacity:1;stroke-miterlimit:10;" d="M 241.949219 148.148438 L 241.015625 133.367188 "/>
<path style="fill:none;stroke-width:1.2;stroke-linecap:butt;stroke-linejoin:miter;stroke:rgb(0%,0%,0%);stroke-opacity:1;stroke-miterlimit:10;" d="M 241.015625 133.367188 L 240.082031 118.585938 "/>
<path style=" stroke:none;fill-rule:nonzero;fill:rgb(100%,100%,100%);fill-opacity:1;" d="M 237.949219 141.148438 L 246.949219 141.148438 L 246.949219 155.148438 L 237.949219 155.148438 Z M 237.949219 141.148438 "/>
<g style="fill:rgb(0%,0%,100%);fill-opacity:1;">
  <use xlink:href="#glyph0-2" x="237.949219" y="152.287109"/>
</g>
<path style="fill:none;stroke-width:1.2;stroke-linecap:butt;stroke-linejoin:miter;stroke:rgb(0%,0%,0%);stroke-opacity:1;stroke-miterlimit:10;" d="M 240.082031 118.585938 L 264.75 102.183594 "/>
<path style="fill:none;stroke-width:1.2;stroke-linecap:butt;stroke-linejoin:miter;stroke:rgb(0%,0%,0%);stroke-opacity:1;stroke-miterlimit:10;" d="M 238.6875 111.140625 L 258.425781 98.019531 "/>
<path style="fill:none;stroke-width:1.2;stroke-linecap:butt;stroke-linejoin:miter;stroke:rgb(0%,0%,0%);stroke-opacity:1;stroke-miterlimit:10;" d="M 213.542969 105.421875 L 240.082031 118.585938 "/>
<path style="fill:none;stroke-width:1.2;stroke-linecap:butt;stroke-linejoin:miter;stroke:rgb(0%,0%,0%);stroke-opacity:1;stroke-miterlimit:10;" d="M 264.75 102.183594 L 262.882812 72.621094 "/>
<path style="fill:none;stroke-width:1.2;stroke-linecap:butt;stroke-linejoin:miter;stroke:rgb(0%,0%,0%);stroke-opacity:1;stroke-miterlimit:10;" d="M 262.882812 72.621094 L 236.34375 59.457031 "/>
<path style="fill:none;stroke-width:1.2;stroke-linecap:butt;stroke-linejoin:miter;stroke:rgb(0%,0%,0%);stroke-opacity:1;stroke-miterlimit:10;" d="M 257.128906 77.546875 L 235.902344 67.015625 "/>
<path style="fill:none;stroke-width:1.2;stroke-linecap:butt;stroke-linejoin:miter;stroke:rgb(0%,0%,0%);stroke-opacity:1;stroke-miterlimit:10;" d="M 236.34375 59.457031 L 211.675781 75.855469 "/>
<path style="fill:none;stroke-width:1.2;stroke-linecap:butt;stroke-linejoin:miter;stroke:rgb(0%,0%,0%);stroke-opacity:1;stroke-miterlimit:10;" d="M 211.675781 75.855469 L 213.542969 105.421875 "/>
<path style="fill:none;stroke-width:1.2;stroke-linecap:butt;stroke-linejoin:miter;stroke:rgb(0%,0%,0%);stroke-opacity:1;stroke-miterlimit:10;" d="M 218.816406 78.371094 L 220.3125 102.023438 "/>
<path style="fill:none;stroke-width:1.2;stroke-linecap:butt;stroke-linejoin:miter;stroke:rgb(0%,0%,0%);stroke-opacity:1;stroke-miterlimit:10;" d="M 219.144531 194.113281 L 244.164062 209.980469 "/>
<path style="fill:none;stroke-width:1.2;stroke-linecap:butt;stroke-linejoin:miter;stroke:rgb(0%,0%,0%);stroke-opacity:1;stroke-miterlimit:10;" d="M 217.914062 201.585938 L 237.929688 214.28125 "/>
<path style="fill:none;stroke-width:1.2;stroke-linecap:butt;stroke-linejoin:miter;stroke:rgb(0%,0%,0%);stroke-opacity:1;stroke-miterlimit:10;" d="M 196.324219 213.003906 L 219.144531 194.113281 "/>
<path style="fill:none;stroke-width:1.2;stroke-linecap:butt;stroke-linejoin:miter;stroke:rgb(0%,0%,0%);stroke-opacity:1;stroke-miterlimit:10;" d="M 244.164062 209.980469 L 240.484375 224.328125 "/>
<path style="fill:none;stroke-width:1.2;stroke-linecap:butt;stroke-linejoin:miter;stroke:rgb(100%,0%,0%);stroke-opacity:1;stroke-miterlimit:10;" d="M 240.484375 224.328125 L 236.804688 238.675781 "/>
<path style="fill:none;stroke-width:1.2;stroke-linecap:butt;stroke-linejoin:miter;stroke:rgb(100%,0%,0%);stroke-opacity:1;stroke-miterlimit:10;" d="M 236.804688 238.675781 L 222.019531 239.609375 "/>
<path style="fill:none;stroke-width:1.2;stroke-linecap:butt;stroke-linejoin:miter;stroke:rgb(0%,0%,0%);stroke-opacity:1;stroke-miterlimit:10;" d="M 222.019531 239.609375 L 207.238281 240.542969 "/>
<path style=" stroke:none;fill-rule:nonzero;fill:rgb(100%,100%,100%);fill-opacity:1;" d="M 231.804688 231.675781 L 241.804688 231.675781 L 241.804688 245.675781 L 231.804688 245.675781 Z M 231.804688 231.675781 "/>
<g style="fill:rgb(100%,0%,0%);fill-opacity:1;">
  <use xlink:href="#glyph0-1" x="231.804688" y="242.814453"/>
</g>
<path style="fill:none;stroke-width:1.2;stroke-linecap:butt;stroke-linejoin:miter;stroke:rgb(0%,0%,0%);stroke-opacity:1;stroke-miterlimit:10;" d="M 207.238281 240.542969 L 196.324219 213.003906 "/>
<path style="fill:none;stroke-width:1.2;stroke-linecap:butt;stroke-linejoin:miter;stroke:rgb(0%,0%,0%);stroke-opacity:1;stroke-miterlimit:10;" d="M 212.628906 235.222656 L 203.898438 213.191406 "/>
</g>
</svg>

<svg xmlns="http://www.w3.org/2000/svg" xmlns:xlink="http://www.w3.org/1999/xlink" width="300pt" height="300pt" viewBox="0 0 300 300"><defs><symbol overflow="visible"><path d="M.594 2.125V-8.47h6V2.126zm.672-.672h4.671V-7.78h-4.67zm0 0"/></symbol><symbol overflow="visible" id="a"><path d="M4.734-7.953c-.867 0-1.554.324-2.062.97-.5.635-.75 1.51-.75 2.624 0 1.094.25 1.965.75 2.61.508.637 1.195.953 2.062.953.852 0 1.532-.316 2.032-.953.507-.645.765-1.516.765-2.61 0-1.113-.257-1.988-.764-2.624-.5-.645-1.18-.97-2.032-.97zm0-.953c1.22 0 2.192.414 2.922 1.234.74.824 1.11 1.93 1.11 3.313 0 1.376-.37 2.477-1.11 3.298C6.926-.24 5.953.17 4.734.17c-1.23 0-2.214-.41-2.953-1.234C1.04-1.882.673-2.984.673-4.36c0-1.382.367-2.488 1.11-3.312.738-.82 1.722-1.234 2.952-1.234zm0 0"/></symbol><symbol overflow="visible" id="b"><path d="M1.172-8.75h1.594l3.89 7.313V-8.75h1.14V0H6.204L2.328-7.313V0H1.172zm0 0"/></symbol><symbol overflow="visible" id="c"><path d="M1.172-8.75H2.36v3.594h4.296V-8.75h1.188V0H6.656v-4.172H2.36V0H1.17zm0 0"/></symbol></defs><g><path fill="#fff" d="M0 0h300v300H0z"/><path d="M88.324 157.855l-24.668 16.403" stroke-width="1.2" stroke="#000" stroke-miterlimit="10" fill="none"/><path d="M86.457 128.293l.934 14.78" stroke-width="1.2" stroke="#00f" stroke-miterlimit="10" fill="none"/><path d="M87.39 143.074l.934 14.78M63.656 174.258l-13.27-6.582" stroke-width="1.2" stroke="#000" stroke-miterlimit="10" fill="none"/><path d="M50.387 167.676l-13.27-6.582M37.117 161.094l-.933-14.785" stroke-width="1.2" stroke="#f00" stroke-miterlimit="10" fill="none"/><path d="M36.184 146.31l-.934-14.783" stroke-width="1.2" stroke="#000" stroke-miterlimit="10" fill="none"/><path d="M32.117 154.094h10v14h-10zm0 0" fill="#fff"/><use xlink:href="#a" x="32.117" y="165.232" fill="#f00"/><path d="M35.25 131.527l24.668-16.398M59.918 115.13l13.27 6.58" stroke-width="1.2" stroke="#000" stroke-miterlimit="10" fill="none"/><path d="M73.188 121.71l13.27 6.583M86.457 128.293l12.336-8.203" stroke-width="1.2" stroke="#00f" stroke-miterlimit="10" fill="none"/><path d="M98.793 120.09l12.336-8.2" stroke-width="1.2" stroke="#000" stroke-miterlimit="10" fill="none"/><path d="M82.457 121.293h9v14h-9zm0 0" fill="#fff"/><use xlink:href="#b" x="82.457" y="132.432" fill="#00f"/><path d="M111.13 111.89l26.534 13.165M137.664 125.055l12.336-8.2" stroke-width="1.2" stroke="#000" stroke-miterlimit="10" fill="none"/><path d="M150 116.855l12.336-8.2M162.336 108.656l13.27 6.582" stroke-width="1.2" stroke="#00f" stroke-miterlimit="10" fill="none"/><path d="M175.605 115.238l13.266 6.582" stroke-width="1.2" stroke="#000" stroke-miterlimit="10" fill="none"/><path d="M153.336 101.656h18v14h-18zm0 0" fill="#fff"/><g fill="#00f"><use xlink:href="#b" x="153.336" y="112.795"/><use xlink:href="#c" x="162.313" y="112.795"/></g><path d="M188.87 121.82l.94 14.782" stroke-width="1.2" stroke="#000" stroke-miterlimit="10" fill="none"/><path d="M189.81 136.602l.932 14.785" stroke-width="1.2" stroke="#00f" stroke-miterlimit="10" fill="none"/><path d="M196.016 124.336l.746 11.828" stroke-width="1.2" stroke="#000" stroke-miterlimit="10" fill="none"/><path d="M196.762 136.164l.75 11.824" stroke-width="1.2" stroke="#00f" stroke-miterlimit="10" fill="none"/><path d="M213.543 105.422L188.87 121.82" stroke-width="1.2" stroke="#000" stroke-miterlimit="10" fill="none"/><path d="M190.742 151.387l13.266 6.582" stroke-width="1.2" stroke="#00f" stroke-miterlimit="10" fill="none"/><path d="M204.008 157.97l13.27 6.58" stroke-width="1.2" stroke="#000" stroke-miterlimit="10" fill="none"/><path d="M186.742 144.387h9v14h-9zm0 0" fill="#fff"/><use xlink:href="#b" x="186.742" y="155.525" fill="#00f"/><path d="M217.277 164.55l12.336-8.198" stroke-width="1.2" stroke="#000" stroke-miterlimit="10" fill="none"/><path d="M229.613 156.352l12.336-8.204" stroke-width="1.2" stroke="#00f" stroke-miterlimit="10" fill="none"/><path d="M215.887 157.105l9.867-6.558" stroke-width="1.2" stroke="#000" stroke-miterlimit="10" fill="none"/><path d="M225.754 150.547l9.867-6.563" stroke-width="1.2" stroke="#00f" stroke-miterlimit="10" fill="none"/><path d="M217.277 164.55l1.868 29.563" stroke-width="1.2" stroke="#000" stroke-miterlimit="10" fill="none"/><path d="M241.95 148.148l-.934-14.78" stroke-width="1.2" stroke="#00f" stroke-miterlimit="10" fill="none"/><path d="M241.016 133.367l-.934-14.78" stroke-width="1.2" stroke="#000" stroke-miterlimit="10" fill="none"/><path d="M237.95 141.148h9v14h-9zm0 0" fill="#fff"/><use xlink:href="#b" x="237.949" y="152.287" fill="#00f"/><path d="M240.082 118.586l24.668-16.402M238.688 111.14l19.738-13.12M213.543 105.422l26.54 13.164M264.75 102.184l-1.867-29.563M262.883 72.62l-26.54-13.163M257.13 77.547L235.9 67.017M236.344 59.457l-24.668 16.398M211.676 75.855l1.867 29.567M218.816 78.37l1.496 23.653M219.145 194.113l25.02 15.867M217.914 201.586l20.016 12.695M196.324 213.004l22.82-18.89M244.164 209.98l-3.68 14.348" stroke-width="1.2" stroke="#000" stroke-miterlimit="10" fill="none"/><path d="M240.484 224.328l-3.68 14.348M236.805 238.676l-14.785.933" stroke-width="1.2" stroke="#f00" stroke-miterlimit="10" fill="none"/><path d="M222.02 239.61l-14.782.933" stroke-width="1.2" stroke="#000" stroke-miterlimit="10" fill="none"/><path d="M231.805 231.676h10v14h-10zm0 0" fill="#fff"/><use xlink:href="#a" x="231.805" y="242.814" fill="#f00"/><path d="M207.238 240.543l-10.914-27.54M212.63 235.223l-8.732-22.032" stroke-width="1.2" stroke="#000" stroke-miterlimit="10" fill="none"/></g></svg>
